src/Images/avatarwoman.svg

<svg width="28" height="36" viewBox="0 0 28 36" fill="none" xmlns="http://www.w3.org/2000/svg">
<g id="formkit:avatarwoman">
<g id="Union">
<path d="M21.2764 13.2149C20.7368 11.8481 20.4607 10.3835 20.4639 8.905V7.9375C20.4639 5.4625 18.5255 3.4375 16.1563 3.4375C16.1563 2.3125 15.0793 2.3125 15.0793 2.3125H11.8486C9.47933 2.3125 7.54087 4.3375 7.54087 6.8125V8.905C7.54087 11.8975 6.39933 14.755 4.39625 16.87L3.23317 18.085L4.82702 18.9175C6.46394 19.7725 8.42394 19.435 9.69471 18.085H9.71092C9.85856 18.2885 10.0201 18.4824 10.1949 18.665C11.2047 19.7199 12.5743 20.3125 14.0024 20.3125C15.4305 20.3125 16.8001 19.7199 17.8099 18.665C17.9847 18.4824 18.1462 18.2885 18.2939 18.085H18.3101C19.6024 19.435 21.5624 19.7725 23.1778 18.9175L24.7716 18.085L23.6086 16.87C22.6086 15.8238 21.816 14.5817 21.2764 13.2149Z" fill="#CCCDC2"/>
<path d="M19.387 22.5625C22.9624 22.5625 25.8486 25.5775 25.8486 29.3125V33.8125H2.15625V29.3125C2.15625 25.5775 5.0424 22.5625 8.61779 22.5625H19.387Z" fill="#CCCDC2"/>
</g>
</g>
</svg>

<svg width="28" height="36" fill="none" xmlns="http://www.w3.org/2000/svg"><g fill="#CCCDC2"><path d="M21.276 13.215a11.675 11.675 0 0 1-.812-4.31v-.967c0-2.475-1.938-4.5-4.308-4.5 0-1.126-1.077-1.126-1.077-1.126h-3.23c-2.37 0-4.308 2.026-4.308 4.5v2.093c0 2.993-1.142 5.85-3.145 7.965l-1.163 1.215 1.594.832c1.637.855 3.597.518 4.868-.832h.016c.148.203.31.397.484.58a5.27 5.27 0 0 0 3.807 1.648 5.27 5.27 0 0 0 3.808-1.648c.175-.183.336-.377.484-.58h.016c1.292 1.35 3.252 1.688 4.868.832l1.594-.832-1.163-1.215a11.283 11.283 0 0 1-2.333-3.655zM19.387 22.563c3.575 0 6.462 3.015 6.462 6.75v4.5H2.156v-4.5c0-3.735 2.886-6.75 6.462-6.75h10.769z"/></g></svg>
